X:74
T:Rechiay Larger
R:polka
D:Jee Kelley: It patey
D:Cowil Fridge
Z:id:hn-polka-65
M:2/4
L:1/8
K:D
FE FE/E/|DD B,E|DE FE|EA BG|ED D2|GB/d/ c/B/A|Bd ag|GF GG|AB/G/ AF/D/|G/A/ B/A/G | FG AGD|
|: eA ff|AF Fd|A>B cd|ef/e/ dd|e2 ed|fe e2|e/f/e cB|AB/A/ GB|1 BA Ad:|2 g>e d>g||